X: 1
T: Gigue De Touristes
M: 6/8
L: 1/8
R: jig
K: Dmaj
|: f/g/ | 
afd dcd | ecA BAG | FGA B>cd | fed e2 f/g/ |
afd d2 d | ecA B2 G | FGA BB/c/d | ecA d2 :|
|: f | 
afd d2 b | baf d2 f | afd d2 d | ecA A2 f |
afd dcb | baf dcB | Afd cBc | ecA d2 :|
